assets/svg/shop-o.svg

<?xml version="1.0" encoding="UTF-8"?>
<svg width="1000px" height="1000px" viewBox="0 0 1000 1000" version="1.1" xmlns="http://www.w3.org/2000/svg" xmlns:xlink="http://www.w3.org/1999/xlink">
    <!-- Generator: sketchtool 52.4 (67378) - http://www.bohemiancoding.com/sketch -->
    <title>shop-o</title>
    <desc>Created with sketchtool.</desc>
    <g id="新版图标" stroke="none" stroke-width="1" fill="none" fill-rule="evenodd">
        <g id="shop-o" fill="#323233" fill-rule="nonzero">
            <g id="圆角-店铺">
                <path d="M203.346203,184.684685 L150.793651,222.222222 L190.47619,222.222222 L203.346203,184.684685 Z M809.52381,222.222222 L885.714286,444.444444 L944.444444,444.444444 L849.206349,166.666667 L150.793651,166.666667 L55.5555556,444.444444 L114.285714,444.444444 L190.47619,222.222222 L809.52381,222.222222 Z M849.206349,222.222222 L796.653797,184.684685 L809.52381,222.222222 L849.206349,222.222222 Z M849.206349,222.222222 L796.653797,184.684685 L809.52381,222.222222 L849.206349,222.222222 Z M885.714286,444.444444 L944.444444,444.444444 L849.206349,166.666667 L150.793651,166.666667 L55.5555556,444.444444 L114.285714,444.444444 L190.47619,222.222222 L809.52381,222.222222 L885.714286,444.444444 Z M805.555556,888.888889 L805.555556,608.80671 C796.521987,610.322256 787.242006,611.111111 777.777778,611.111111 C719.806359,611.111111 668.747804,581.51362 638.888875,536.605399 C609.029957,581.51363 557.97141,611.111111 500,611.111111 C442.028581,611.111111 390.970026,581.51362 361.111097,536.605399 C331.252179,581.51363 280.193632,611.111111 222.222222,611.111111 C212.757994,611.111111 203.478013,610.322256 194.444444,608.80671 L194.444444,888.888889 L805.555556,888.888889 Z M860.964665,944.297998 C860.874182,944.38848 860.749182,944.444444 860.611111,944.444444 L139.388889,944.444444 C139.250818,944.444444 139.125818,944.38848 139.035335,944.297998 C138.944853,944.207516 138.888889,944.082516 138.888889,943.944444 L138.888889,588.814079 C89.0720872,559.996593 55.5555556,506.134622 55.5555556,444.444444 L111.111111,444.444444 C111.111111,505.809417 160.85725,555.555556 222.222222,555.555556 C283.587194,555.555556 333.333333,505.809417 333.333333,444.444444 C333.333333,429.103201 345.769868,416.666667 361.111111,416.666667 C376.452354,416.666667 388.888889,429.103201 388.888889,444.444444 C388.888889,505.809417 438.635028,555.555556 500,555.555556 C561.364972,555.555556 611.111111,505.809417 611.111111,444.444444 C611.111111,429.103201 623.547646,416.666667 638.888889,416.666667 C654.230132,416.666667 666.666667,429.103201 666.666667,444.444444 C666.666667,505.809417 716.412806,555.555556 777.777778,555.555556 C839.14275,555.555556 888.888889,505.809417 888.888889,444.444444 L944.444444,444.444444 C944.444444,506.134622 910.927913,559.996593 861.111158,588.814052 L861.111111,943.944444 C861.111111,944.082516 861.055147,944.207516 860.964665,944.297998 Z M203.346203,184.684685 L190.47619,222.222222 L150.793651,222.222222 L203.346203,184.684685 Z M167.166667,55.5555556 L832.833333,55.5555556 C833.109476,55.5555556 833.333333,55.7794132 833.333333,56.0555556 L833.333333,110.611111 C833.333333,110.887253 833.109476,111.111111 832.833333,111.111111 L167.166667,111.111111 C166.890524,111.111111 166.666667,110.887253 166.666667,110.611111 L166.666667,56.0555556 C166.666667,55.7794132 166.890524,55.5555556 167.166667,55.5555556 Z" id="Combined-Shape"></path>
            </g>
        </g>
    </g>
</svg>

<svg width="1000" height="1000" xmlns="http://www.w3.org/2000/svg"><path d="M203.346 184.685l-52.552 37.537h39.682l12.87-37.537zm606.178 37.537l76.19 222.222h58.73l-95.238-277.777H150.794L55.556 444.444h58.73l76.19-222.222h619.048zm39.682 0l-52.552-37.537 12.87 37.537h39.682zm0 0l-52.552-37.537 12.87 37.537h39.682zm36.508 222.222h58.73l-95.238-277.777H150.794L55.556 444.444h58.73l76.19-222.222h619.048l76.19 222.222zM805.556 888.89V608.807a167.794 167.794 0 0 1-27.778 2.304c-57.972 0-109.03-29.597-138.89-74.506-29.858 44.909-80.917 74.506-138.888 74.506-57.971 0-109.03-29.597-138.889-74.506-29.859 44.909-80.917 74.506-138.889 74.506-9.464 0-18.744-.789-27.778-2.304v280.082h611.112zm55.409 55.409a.498.498 0 0 1-.354.146H139.39a.498.498 0 0 1-.5-.5v-355.13c-49.817-28.817-83.333-82.68-83.333-144.37h55.555c0 61.365 49.746 111.112 111.111 111.112s111.111-49.747 111.111-111.112c0-15.34 12.437-27.777 27.778-27.777s27.778 12.436 27.778 27.777c0 61.365 49.746 111.112 111.111 111.112s111.111-49.747 111.111-111.112c0-15.34 12.437-27.777 27.778-27.777s27.778 12.436 27.778 27.777c0 61.365 49.746 111.112 111.11 111.112 61.366 0 111.112-49.747 111.112-111.112h55.555c0 61.69-33.516 115.553-83.333 144.37v355.13a.498.498 0 0 1-.146.354zM203.346 184.685l-12.87 37.537h-39.682l52.552-37.537zm-36.18-129.13h665.667a.5.5 0 0 1 .5.5v54.556a.5.5 0 0 1-.5.5H167.167a.5.5 0 0 1-.5-.5V56.056a.5.5 0 0 1 .5-.5z" fill="#323233" fill-rule="nonzero"/></svg>
